src/assets/images/newTemplateModal.svg

<svg width="333" height="225" viewBox="0 0 333 225" fill="none" xmlns="http://www.w3.org/2000/svg">
<g clip-path="url(#clip0_28_5908)">
<path d="M329.76 4.22043e-09H104.433C103.575 0.000749053 102.752 0.342026 102.145 0.948908C101.538 1.55579 101.197 2.37868 101.196 3.23693V84.6836H155.727C157.204 84.6854 158.619 85.2726 159.663 86.3164C160.707 87.3603 161.294 88.7755 161.296 90.2517V159.159H329.76C330.228 159.159 330.69 159.057 331.115 158.861C331.54 158.665 331.917 158.379 332.221 158.023C332.246 157.995 332.27 157.965 332.291 157.934C332.485 157.698 332.641 157.434 332.755 157.151C332.918 156.762 333.001 156.344 333 155.922V3.23693C332.999 2.37809 332.657 1.55475 332.05 0.947804C331.442 0.340859 330.618 -4.37973e-05 329.76 4.22043e-09Z" fill="#F2F2F2"/>
<path d="M332.535 12.9741H101.656V13.8995H332.535V12.9741Z" fill="#CCCCCC"/>
<path d="M109.522 9.7169C111.055 9.7169 112.298 8.47402 112.298 6.94085C112.298 5.40768 111.055 4.16479 109.522 4.16479C107.989 4.16479 106.746 5.40768 106.746 6.94085C106.746 8.47402 107.989 9.7169 109.522 9.7169Z" fill="#CCCCCC"/>
<path d="M117.504 9.7169C119.037 9.7169 120.28 8.47402 120.28 6.94085C120.28 5.40768 119.037 4.16479 117.504 4.16479C115.97 4.16479 114.728 5.40768 114.728 6.94085C114.728 8.47402 115.97 9.7169 117.504 9.7169Z" fill="#CCCCCC"/>
<path d="M125.485 9.7169C127.018 9.7169 128.261 8.47402 128.261 6.94085C128.261 5.40768 127.018 4.16479 125.485 4.16479C123.951 4.16479 122.708 5.40768 122.708 6.94085C122.708 8.47402 123.951 9.7169 125.485 9.7169Z" fill="#CCCCCC"/>
<path d="M275.006 33.1785H159.187C157.907 33.1785 156.68 33.6869 155.775 34.5919C154.87 35.4969 154.361 36.7243 154.361 38.0042C154.361 39.284 154.87 40.5115 155.775 41.4164C156.68 42.3214 157.907 42.8299 159.187 42.8299H275.006C276.285 42.8299 277.513 42.3214 278.418 41.4164C279.323 40.5115 279.831 39.284 279.831 38.0042C279.831 36.7243 279.323 35.4969 278.418 34.5919C277.513 33.6869 276.285 33.1785 275.006 33.1785ZM275.006 42.0874H159.187C158.104 42.0874 157.066 41.6572 156.3 40.8915C155.534 40.1257 155.104 39.0871 155.104 38.0042C155.104 36.9212 155.534 35.8826 156.3 35.1168C157.066 34.3511 158.104 33.9209 159.187 33.9209H275.006C276.089 33.9209 277.127 34.3511 277.893 35.1168C278.659 35.8826 279.089 36.9212 279.089 38.0042C279.089 39.0871 278.659 40.1257 277.893 40.8915C277.127 41.6572 276.089 42.0874 275.006 42.0874Z" fill="#CCCCCC"/>
<path d="M310.445 71.6245H194.627C193.347 71.6245 192.119 72.1329 191.214 73.0379C190.309 73.9429 189.801 75.1704 189.801 76.4502C189.801 77.7301 190.309 78.9575 191.214 79.8625C192.119 80.7675 193.347 81.2759 194.627 81.2759H310.445C311.725 81.2759 312.952 80.7675 313.857 79.8625C314.762 78.9575 315.271 77.7301 315.271 76.4502C315.271 75.1704 314.762 73.9429 313.857 73.0379C312.952 72.1329 311.725 71.6245 310.445 71.6245Z" fill="white"/>
<path d="M310.445 89.4424H194.627C193.347 89.4424 192.119 89.9508 191.214 90.8558C190.309 91.7608 189.801 92.9882 189.801 94.2681C189.801 95.5479 190.309 96.7754 191.214 97.6804C192.119 98.5854 193.347 99.0938 194.627 99.0938H310.445C311.725 99.0938 312.952 98.5854 313.857 97.6804C314.762 96.7754 315.271 95.5479 315.271 94.2681C315.271 92.9882 314.762 91.7608 313.857 90.8558C312.952 89.9508 311.725 89.4424 310.445 89.4424Z" fill="white"/>
<path d="M310.445 107.26H194.627C193.347 107.26 192.119 107.769 191.214 108.674C190.309 109.579 189.801 110.806 189.801 112.086C189.801 113.366 190.309 114.593 191.214 115.498C192.119 116.403 193.347 116.912 194.627 116.912H310.445C311.725 116.912 312.952 116.403 313.857 115.498C314.762 114.593 315.271 113.366 315.271 112.086C315.271 110.806 314.762 109.579 313.857 108.674C312.952 107.769 311.725 107.26 310.445 107.26Z" fill="white"/>
<path d="M175.91 63.6436H123.191C122.06 63.6449 120.976 64.0947 120.176 64.8943C119.376 65.6939 118.927 66.7779 118.925 67.9087V84.6836H119.668V67.9087C119.669 66.9749 120.041 66.0796 120.701 65.4193C121.362 64.759 122.257 64.3874 123.191 64.386H175.91C176.844 64.3868 177.74 64.7582 178.4 65.4187C179.061 66.0791 179.432 66.9747 179.433 67.9087V120.628C179.432 121.562 179.061 122.457 178.4 123.118C177.74 123.778 176.844 124.15 175.91 124.15H161.296V124.893H175.91C177.041 124.892 178.126 124.442 178.925 123.643C179.725 122.843 180.175 121.759 180.175 120.628V67.9087C180.175 66.7778 179.725 65.6933 178.925 64.8936C178.126 64.0939 177.041 63.6443 175.91 63.6436Z" fill="#CCCCCC"/>
<path d="M39.2088 117.883C39.0223 117.891 31.0754 117.34 30.8726 117.333L31.5864 110.207L36.1128 110.071L44.762 94.0511C43.5624 91.7637 45.0386 88.7286 47.5834 88.2608C52.7112 87.0953 54.4728 95.1628 49.3292 96.2363L42.1751 115.811C41.9507 116.418 41.5463 116.941 41.0162 117.312C40.4861 117.682 39.8555 117.881 39.2088 117.883Z" fill="#FFB8B8"/>
<path d="M18.2577 121.554C10.6955 121.572 10.0317 110.144 17.6106 109.338C37.6518 108.128 35.1157 103.094 36.6376 117.941C36.6844 118.382 36.5545 118.823 36.2765 119.167C35.9985 119.512 35.5951 119.732 35.1548 119.78L18.9141 121.519C18.6961 121.542 18.477 121.554 18.2577 121.554Z" fill="#486BC9"/>
<path d="M16.5318 85.4203C26.9497 91.3485 18.3971 106.99 7.78501 101.42C-2.63259 95.4921 5.92001 79.8508 16.5318 85.4203Z" fill="#FFB8B8"/>
<path d="M26.0032 220.06L30.5539 220.06L32.7192 202.506L26.0024 202.507L26.0032 220.06Z" fill="#FFB8B8"/>
<path d="M25.0276 224.286L39.3307 224.286C39.2761 216.906 29.7095 219.032 25.0273 218.76L25.0276 224.286Z" fill="#2F2E41"/>
<path d="M6.32887 220.06L10.8796 220.06L13.0449 202.506L6.32812 202.507L6.32887 220.06Z" fill="#FFB8B8"/>
<path d="M5.35376 224.286L19.6569 224.286C19.6022 216.906 10.0357 219.032 5.35352 218.76L5.35376 224.286Z" fill="#2F2E41"/>
<path d="M11.5011 213.93C10.4012 213.628 4.42439 214.541 3.71902 213.342C1.25565 188.653 1.80323 164.491 7.27143 151.213L26.0727 150.062C30.277 157.737 39.9413 208.667 34.1117 211.763L26.6152 212.031C26.1877 212.045 25.7685 211.911 25.4278 211.652C25.0872 211.394 24.8459 211.026 24.7445 210.61L18.473 174.931C16.9112 172.748 13.8412 212.506 13.3343 212.357C13.2682 212.796 13.0466 213.196 12.7101 213.484C12.3736 213.773 11.9445 213.931 11.5011 213.93Z" fill="#2F2E41"/>
<path d="M6.67441 154.334C-2.8181 144.403 3.23683 117.778 2.93038 118.345C2.95639 117.692 5.10643 107.648 10.6681 105.999C15.0806 104.543 19.9645 108.899 20.5669 113.305L27.1769 152.339C27.2111 152.551 27.1948 152.769 27.1295 152.974C27.0641 153.179 26.9514 153.366 26.8006 153.519C27.1256 154.531 7.13911 154.131 6.67441 154.334Z" fill="#486BC9"/>
<path d="M9.75474 92.406C10.5884 91.879 10.9992 90.9752 11.4845 90.1518C14.0404 88.6951 16.9787 92.219 19.6821 90.9039C27.3264 83.5654 19.4689 81.4004 12.4285 81.0135C10.7653 80.8085 9.35045 81.3985 8.09301 82.3729C-5.97065 81.2988 0.774085 99.9988 9.64996 102.469C11.2171 103.155 12.3927 101.766 11.0106 100.503C9.09857 98.4984 6.72996 94.4634 9.75474 92.406Z" fill="#2F2E41"/>
<path d="M155.727 83.9412H54.0147C52.3418 83.9435 50.738 84.6091 49.5551 85.7921C48.3721 86.975 47.7065 88.5788 47.7041 90.2517V218.689C47.7065 220.362 48.3721 221.966 49.5551 223.149C50.738 224.332 52.3418 224.998 54.0147 225H155.727C157.4 224.998 159.004 224.332 160.187 223.149C161.37 221.966 162.035 220.362 162.038 218.689V90.2517C162.035 88.5788 161.37 86.975 160.187 85.7921C159.004 84.6092 157.4 83.9435 155.727 83.9412ZM161.295 218.689C161.294 220.166 160.706 221.581 159.662 222.625C158.619 223.669 157.203 224.256 155.727 224.258H54.0147C52.5385 224.256 51.1232 223.669 50.0794 222.625C49.0355 221.581 48.4483 220.166 48.4465 218.689V90.2517C48.4483 88.7755 49.0355 87.3603 50.0794 86.3164C51.1232 85.2726 52.5385 84.6854 54.0147 84.6836H155.727C157.203 84.6854 158.619 85.2726 159.662 86.3164C160.706 87.3603 161.294 88.7755 161.295 90.2517V218.689Z" fill="#3F3D56"/>
<path d="M25.3567 137.988C22.0044 138.368 20.5326 130.567 19.251 128.579L25.9272 125.987L28.0995 129.96L46.2994 130.412C46.4076 130.266 46.5257 130.127 46.6529 129.997C50.2623 126.217 56.1402 131.88 52.5445 135.651C52.1478 136.072 51.6663 136.405 51.1316 136.627C50.597 136.849 50.0214 136.955 49.4428 136.938C48.8642 136.921 48.2957 136.782 47.7748 136.53C47.2539 136.277 46.7924 135.917 46.4208 135.474C45.9713 135.506 25.7962 138 25.3567 137.988Z" fill="#FFB8B8"/>
<path d="M20.4124 134.265C19.2962 135.34 10.7272 120.243 10.1012 119.816C5.77121 113.086 15.9647 106.442 20.3693 113.135L29.2773 126.825C29.5184 127.196 29.6023 127.648 29.5107 128.081C29.419 128.515 29.1592 128.894 28.7883 129.136C28.3823 129.326 20.6989 134.673 20.4124 134.265Z" fill="#486BC9"/>
<path d="M135.682 172.845H74.0604C67.7657 172.815 67.7395 163.227 74.0607 163.194H135.682C141.972 163.223 142.006 172.812 135.682 172.845Z" fill="#CCCCCC"/>
<path d="M135.682 190.663H74.0604C67.7657 190.633 67.7395 181.045 74.0607 181.012H135.682C141.972 181.041 142.006 190.63 135.682 190.663Z" fill="#CCCCCC"/>
<path d="M135.682 208.481H74.0604C67.7657 208.451 67.7395 198.863 74.0607 198.83H135.682C141.972 198.859 142.006 208.448 135.682 208.481Z" fill="#CCCCCC"/>
<path d="M158.697 95.8199C156.788 95.8199 154.922 95.2539 153.335 94.1933C151.748 93.1328 150.511 91.6255 149.78 89.8619C149.05 88.0984 148.858 86.1578 149.231 84.2856C149.603 82.4134 150.522 80.6937 151.872 79.3439C153.222 77.9942 154.942 77.0749 156.814 76.7025C158.686 76.3301 160.627 76.5213 162.39 77.2518C164.154 77.9823 165.661 79.2193 166.722 80.8065C167.782 82.3936 168.349 84.2596 168.349 86.1685C168.346 88.7273 167.328 91.1805 165.518 92.9899C163.709 94.7992 161.256 95.817 158.697 95.8199Z" fill="#486BC9"/>
<path d="M163.151 85.7972H159.068V81.1571C159.068 81.0586 159.029 80.9642 158.959 80.8946C158.89 80.825 158.795 80.7859 158.697 80.7859C158.598 80.7859 158.504 80.825 158.434 80.8946C158.365 80.9642 158.326 81.0586 158.326 81.1571V85.7972H154.242C154.144 85.7972 154.049 85.8363 153.98 85.9059C153.91 85.9755 153.871 86.0699 153.871 86.1684C153.871 86.2668 153.91 86.3613 153.98 86.4309C154.049 86.5005 154.144 86.5396 154.242 86.5396H158.326V91.1797C158.326 91.2781 158.365 91.3726 158.434 91.4422C158.504 91.5118 158.598 91.5509 158.697 91.5509C158.795 91.5509 158.89 91.5118 158.959 91.4422C159.029 91.3726 159.068 91.2781 159.068 91.1797V86.5396H163.151C163.25 86.5396 163.344 86.5005 163.414 86.4309C163.484 86.3613 163.523 86.2668 163.523 86.1684C163.523 86.0699 163.484 85.9755 163.414 85.9059C163.344 85.8363 163.25 85.7972 163.151 85.7972Z" fill="white"/>
<path d="M134.568 151.612H75.1738C73.55 151.61 71.9931 150.964 70.8448 149.816C69.6966 148.668 69.0507 147.111 69.0488 145.487V112.227C69.0507 110.603 69.6966 109.047 70.8448 107.898C71.9931 106.75 73.55 106.104 75.1738 106.102H134.568C136.192 106.104 137.749 106.75 138.897 107.898C140.045 109.047 140.691 110.603 140.693 112.227V145.487C140.691 147.111 140.045 148.668 138.897 149.816C137.749 150.964 136.192 151.61 134.568 151.612Z" fill="#486BC9"/>
</g>
<defs>
<clipPath id="clip0_28_5908">
<rect width="333" height="225" fill="white"/>
</clipPath>
</defs>
</svg>

<svg width="333" height="225" fill="none" xmlns="http://www.w3.org/2000/svg"><g clip-path="url(#a)"><path d="M329.76 0H104.433a3.24 3.24 0 0 0-3.237 3.237v81.447h54.531a5.576 5.576 0 0 1 5.569 5.568v68.907H329.76a3.235 3.235 0 0 0 2.531-1.225c.194-.236.35-.5.464-.783a3.16 3.16 0 0 0 .245-1.229V3.237A3.243 3.243 0 0 0 329.76 0Z" fill="#F2F2F2"/><path d="M332.535 12.974H101.656v.925h230.879v-.925ZM109.522 9.717a2.776 2.776 0 1 0 0-5.552 2.776 2.776 0 0 0 0 5.552Zm7.982 0a2.776 2.776 0 1 0 0-5.552 2.776 2.776 0 0 0 0 5.552Zm7.981 0a2.776 2.776 0 1 0 0-5.552 2.776 2.776 0 0 0 0 5.552Zm149.521 23.461H159.187a4.825 4.825 0 1 0 0 9.652h115.819a4.827 4.827 0 0 0 0-9.651Zm0 8.91H159.187a4.083 4.083 0 0 1 0-8.167h115.819a4.083 4.083 0 0 1 0 8.166Z" fill="#CCC"/><path d="M310.445 71.624H194.627a4.827 4.827 0 0 0-3.413 8.239 4.827 4.827 0 0 0 3.413 1.413h115.818a4.825 4.825 0 1 0 0-9.651Zm0 17.818H194.627a4.827 4.827 0 0 0-3.413 8.238 4.827 4.827 0 0 0 3.413 1.414h115.818a4.825 4.825 0 1 0 0-9.652Zm0 17.818H194.627a4.828 4.828 0 0 0-3.413 8.238 4.828 4.828 0 0 0 3.413 1.414h115.818a4.825 4.825 0 0 0 0-9.652Z" fill="#fff"/><path d="M175.91 63.644h-52.719a4.272 4.272 0 0 0-4.266 4.265v16.775h.743V67.909a3.527 3.527 0 0 1 3.523-3.523h52.719a3.525 3.525 0 0 1 3.523 3.523v52.719a3.526 3.526 0 0 1-3.523 3.522h-14.614v.743h14.614a4.27 4.27 0 0 0 4.265-4.265v-52.72a4.264 4.264 0 0 0-4.265-4.264Z" fill="#CCC"/><path d="M39.209 117.883c-.187.008-8.134-.543-8.336-.55l.713-7.126 4.527-.136 8.649-16.02c-1.2-2.287.277-5.322 2.821-5.79 5.128-1.166 6.89 6.902 1.746 7.975l-7.154 19.575a3.176 3.176 0 0 1-2.966 2.072Z" fill="#FFB8B8"/><path d="M18.258 121.554c-7.563.018-8.226-11.41-.647-12.216 20.04-1.21 17.505-6.244 19.027 8.603a1.67 1.67 0 0 1-1.483 1.839l-16.24 1.739a6.256 6.256 0 0 1-.657.035Z" fill="#486BC9"/><path d="M16.532 85.42c10.418 5.928 1.865 21.57-8.747 16-10.418-5.928-1.865-21.57 8.747-16Zm9.471 134.64h4.55l2.166-17.554-6.717.001.001 17.553Z" fill="#FFB8B8"/><path d="M25.028 224.286H39.33c-.055-7.38-9.622-5.254-14.304-5.526v5.526Z" fill="#2F2E41"/><path d="M6.329 220.06h4.55l2.166-17.554-6.717.001v17.553Z" fill="#FFB8B8"/><path d="M5.354 224.286h14.303c-.055-7.38-9.621-5.254-14.303-5.526v5.526Zm6.147-10.356c-1.1-.302-7.077.611-7.782-.588-2.463-24.689-1.916-48.851 3.552-62.129l18.802-1.151c4.204 7.675 13.868 58.605 8.039 61.701l-7.497.268a1.861 1.861 0 0 1-1.87-1.421l-6.272-35.679c-1.562-2.183-4.632 37.575-5.139 37.426a1.844 1.844 0 0 1-1.833 1.573Z" fill="#2F2E41"/><path d="M6.674 154.334c-9.492-9.931-3.437-36.556-3.744-35.989.026-.653 2.176-10.697 7.738-12.346 4.413-1.456 9.297 2.9 9.899 7.306l6.61 39.034a1.374 1.374 0 0 1-.376 1.18c.325 1.012-19.662.612-20.127.815Z" fill="#486BC9"/><path d="M9.755 92.406c.833-.527 1.244-1.43 1.73-2.254 2.555-1.457 5.494 2.067 8.197.752 7.644-7.339-.213-9.504-7.253-9.89-1.664-.206-3.079.385-4.336 1.359C-5.971 81.299.774 99.999 9.65 102.469c1.567.686 2.743-.703 1.36-1.966-1.911-2.005-4.28-6.04-1.255-8.097Z" fill="#2F2E41"/><path d="M155.727 83.941H54.015a6.319 6.319 0 0 0-6.31 6.31V218.69a6.32 6.32 0 0 0 6.31 6.311h101.712a6.319 6.319 0 0 0 6.311-6.311V90.252a6.322 6.322 0 0 0-6.311-6.31Zm5.568 134.748a5.572 5.572 0 0 1-5.568 5.569H54.015a5.575 5.575 0 0 1-5.569-5.569V90.252a5.575 5.575 0 0 1 5.569-5.568h101.712a5.573 5.573 0 0 1 5.568 5.568v128.437Z" fill="#3F3D56"/><path d="M25.357 137.988c-3.353.38-4.824-7.421-6.106-9.409l6.676-2.592 2.172 3.973 18.2.452c.109-.146.227-.285.354-.415 3.61-3.78 9.487 1.883 5.892 5.654a4.104 4.104 0 0 1-3.102 1.287 4.107 4.107 0 0 1-3.022-1.464c-.45.032-20.625 2.526-21.064 2.514Z" fill="#FFB8B8"/><path d="M20.412 134.265c-1.116 1.075-9.685-14.022-10.31-14.449-4.33-6.73 5.863-13.374 10.267-6.681l8.908 13.69a1.67 1.67 0 0 1-.489 2.311c-.406.19-8.09 5.537-8.376 5.129Z" fill="#486BC9"/><path d="M135.682 172.845H74.06c-6.294-.03-6.32-9.618 0-9.651h61.622c6.29.029 6.324 9.618 0 9.651Zm0 17.818H74.06c-6.294-.03-6.32-9.618 0-9.651h61.622c6.29.029 6.324 9.618 0 9.651Zm0 17.818H74.06c-6.294-.03-6.32-9.618 0-9.651h61.622c6.29.029 6.324 9.618 0 9.651Z" fill="#CCC"/><path d="M158.697 95.82a9.65 9.65 0 0 1-9.466-11.534 9.646 9.646 0 0 1 7.583-7.584 9.65 9.65 0 0 1 8.704 16.288 9.66 9.66 0 0 1-6.821 2.83Z" fill="#486BC9"/><path d="M163.151 85.797h-4.083v-4.64a.37.37 0 0 0-.371-.371.372.372 0 0 0-.371.371v4.64h-4.084a.37.37 0 0 0-.371.371.37.37 0 0 0 .371.372h4.084v4.64a.372.372 0 0 0 .742 0v-4.64h4.083a.372.372 0 0 0 .263-.634.372.372 0 0 0-.263-.109Z" fill="#fff"/><path d="M134.568 151.612H75.174a6.134 6.134 0 0 1-6.125-6.125v-33.26a6.134 6.134 0 0 1 6.125-6.125h59.394a6.133 6.133 0 0 1 6.125 6.125v33.26a6.133 6.133 0 0 1-6.125 6.125Z" fill="#486BC9"/></g><defs><clipPath id="a"><path fill="#fff" d="M0 0h333v225H0z"/></clipPath></defs></svg>
